bvspca/static/svg/cat.svg

<svg version="1" viewBox="0 0 400 380" xmlns="http://www.w3.org/2000/svg"><path d="M151.35 307.2h113c0-16.064-1.147-19.25-27.75-19.25 4.25-12.75 21.525-43.596 31.125-43.596 8.493 0 18.625.468 18.625 19.846 0 22 37.023 57.471 46 43 13.379-21.566-23-14.989-23-67 0-71.153 41.525-61.024 41.525-101 0-20-5.525-22.701-5.525-37 0-18.898 16.648-17.801 13.409-33.47-2.238-10.823-3.989-19.503-5.293-32.591-.926-9.287-1.22-19.184-10.867-18.787-11.334.468-15.633 20.417-33.25 21.847-17.581 1.427-32.571-14.967-39.375-12.625-6.747 2.322-4.625 20.625-.625 33.625 6.287 20.432 20 47-5 51s-68 8-99 49-29.856 89.117-42 104c-40.758 49.951-82.525 29.442-82.525 71 0 18.606 31.525 32 36.525 26s-42.485-23.879 10.646-45c45.392-18.044 49.444-21.728 63.354-9z" fill="#929292" fill-rule="evenodd"/></svg>

<svg xmlns="http://www.w3.org/2000/svg" width="400" height="380"><path d="M151.3 307.2L264.3 307.2C264.3 291.1 263.2 288 236.6 288 240.8 275.2 258.1 244.4 267.7 244.4 276.2 244.4 286.3 244.8 286.3 264.2 286.3 286.2 323.4 321.7 332.3 307.2 345.7 285.6 309.3 292.2 309.3 240.2 309.3 169.1 350.9 179.2 350.9 139.2 350.9 119.2 345.3 116.5 345.3 102.2 345.3 83.3 362 84.4 358.8 68.7 356.5 57.9 354.8 49.2 353.5 36.1 352.5 26.9 352.2 17 342.6 17.4 331.3 17.8 327 37.8 309.3 39.2 291.8 40.6 276.8 24.2 270 26.6 263.2 28.9 265.3 47.2 269.3 60.2 275.6 80.6 289.3 107.2 264.3 111.2 239.3 115.2 196.3 119.2 165.3 160.2 134.3 201.2 135.5 249.3 123.3 264.2 82.6 314.2 40.8 293.6 40.8 335.2 40.8 353.8 72.3 367.2 77.3 361.2 82.3 355.2 34.9 337.3 88 316.2 133.4 298.2 137.4 294.5 151.3 307.2z" style="fill:#929292;stroke-width:1px"/></svg>
